Papirus-Dark/24x24/actions/resource-calendar-child.svg

<?xml version="1.0" encoding="UTF-8" standalone="no"?>
<!--Created with Inkscape (http://www.inkscape.org/)-->
<svg xmlns:osb="http://www.openswatchbook.org/uri/2009/osb" xmlns:dc="http://purl.org/dc/elements/1.1/" xmlns:cc="http://creativecommons.org/ns#" xmlns:rdf="http://www.w3.org/1999/02/22-rdf-syntax-ns#" xmlns:svg="http://www.w3.org/2000/svg" xmlns="http://www.w3.org/2000/svg" xmlns:sodipodi="http://sodipodi.sourceforge.net/DTD/sodipodi-0.dtd" xmlns:inkscape="http://www.inkscape.org/namespaces/inkscape" sodipodi:docname="resource-calendar-child.svg" inkscape:export-filename="/home/sam/source-symbolic.png" inkscape:export-xdpi="270" inkscape:export-ydpi="270" height="24" id="svg7384" style="enable-background:new" version="1.1" inkscape:version="0.91 r13725" width="24">
    <sodipodi:namedview inkscape:bbox-nodes="true" inkscape:bbox-paths="false" bordercolor="#666666" borderlayer="false" borderopacity="1" inkscape:current-layer="g6058" inkscape:cx="-7.8982715" inkscape:cy="20.014656" gridtolerance="10" inkscape:guide-bbox="true" guidetolerance="10" id="namedview88" inkscape:object-nodes="true" inkscape:object-paths="true" objecttolerance="10" pagecolor="#f7f7f7" inkscape:pageopacity="1" inkscape:pageshadow="2" showborder="true" showgrid="false" showguides="true" inkscape:showpageshadow="false" inkscape:snap-bbox="true" inkscape:snap-bbox-edge-midpoints="false" inkscape:snap-bbox-midpoints="true" inkscape:snap-center="false" inkscape:snap-global="true" inkscape:snap-grids="true" inkscape:snap-intersection-paths="true" inkscape:snap-midpoints="true" inkscape:snap-nodes="true" inkscape:snap-object-midpoints="true" inkscape:snap-others="true" inkscape:snap-page="false" inkscape:snap-smooth-nodes="true" inkscape:snap-to-guides="true" inkscape:window-height="847" inkscape:window-maximized="1" inkscape:window-width="1600" inkscape:window-x="0" inkscape:window-y="30" inkscape:zoom="7.04">
        <inkscape:grid color="#ffffff" dotted="false" empcolor="#0800ff" empopacity="0.4627451" empspacing="4" enabled="true" id="grid4866" opacity="0.16470588" originx="-564" originy="-176" snapvisiblegridlinesonly="true" spacingx="0.25px" spacingy="0.25px" type="xygrid" visible="true"/>
    </sodipodi:namedview>
    <metadata id="metadata90">
        <rdf:RDF>
            <cc:Work rdf:about="">
                <dc:format>
                    image/svg+xml
                </dc:format>
                <dc:type rdf:resource="http://purl.org/dc/dcmitype/StillImage"/>
                <dc:title>
                    Paper Symbolic Icon Theme
                </dc:title>
            </cc:Work>
        </rdf:RDF>
    </metadata>
    <title id="title8473">
        Paper Symbolic Icon Theme
    </title>
    <defs id="defs7386">
        <linearGradient id="linearGradient5606" osb:paint="solid">
            <stop id="stop5608" offset="0" style="stop-color:#ffffff;stop-opacity:1;"/>
        </linearGradient>
        <filter inkscape:collect="always" id="filter7554" style="color-interpolation-filters:sRGB">
            <feBlend inkscape:collect="always" id="feBlend7556" in2="BackgroundImage" mode="darken"/>
        </filter>
    </defs>
    <g inkscape:groupmode="layer" id="g6058" inkscape:label="apps" style="display:inline" transform="translate(-564,-500)">
        <path style="color:#ffffff;font-style:normal;font-variant:normal;font-weight:normal;font-stretch:normal;font-size:medium;line-height:normal;font-family:Sans;-inkscape-font-specification:Sans;text-indent:0;text-align:start;text-decoration:none;text-decoration-line:none;letter-spacing:normal;word-spacing:normal;text-transform:none;direction:ltr;block-progression:tb;writing-mode:lr-tb;baseline-shift:baseline;text-anchor:start;display:inline;overflow:visible;visibility:visible;opacity:0.72;fill:#ffffff;fill-opacity:1;fill-rule:nonzero;stroke:none;stroke-width:2;marker:none;enable-background:new" d="M 7.0039062 5 C 4.7539062 5 5.0039062 7 5.0039062 7 L 5.0039062 19 L 11 19 L 11 17 L 7.0039062 17 L 7.0039062 16.15625 L 7.0039062 14.5 L 7.0039062 7 L 17.003906 7 L 17.003906 11 L 19 11 L 19 14.175781 C 18.989042 13.522572 18.550981 13 18.003906 13 L 13.003906 13 C 12.449906 13 12.003906 13.534419 12.003906 14.199219 L 12.003906 17.800781 C 12.003906 18.465581 12.449906 19 13.003906 19 L 18.003906 19 C 18.550981 19 18.989042 18.477428 19 17.824219 L 19 19 L 19.003906 19 L 19.003906 18 L 19.003906 17.800781 L 19.003906 14.199219 L 19.003906 7 C 19.003906 5 17.003906 5 17.003906 5 L 7.0039062 5 z M 8.0039062 8 L 8.0039062 10 L 10.003906 10 L 10.003906 8 L 8.0039062 8 z M 11.003906 8 L 11.003906 10 L 13.003906 10 L 13.003906 8 L 11.003906 8 z M 14.003906 8 L 14.003906 10 L 16.003906 10 L 16.003906 8 L 14.003906 8 z M 8.0039062 11 L 8.0039062 13 L 10.003906 13 L 10.003906 11 L 8.0039062 11 z M 8.0039062 14 L 8.0039062 16 L 10.003906 16 L 10.003906 14 L 8.0039062 14 z " transform="translate(564,500)" id="path6716"/>
    </g>
</svg>

<?xml version="1.0" encoding="UTF-8" standalone="no"?>
<!--Created with Inkscape (http://www.inkscape.org/)-->
<svg id="svg7384" xmlns:rdf="http://www.w3.org/1999/02/22-rdf-syntax-ns#" style="enable-background:new" xmlns="http://www.w3.org/2000/svg" height="24" width="24" version="1.1" xmlns:cc="http://creativecommons.org/ns#" xmlns:dc="http://purl.org/dc/elements/1.1/">
 <metadata id="metadata90">
  <rdf:RDF>
   <cc:Work rdf:about="">
    <dc:format>image/svg+xml</dc:format>
    <dc:type rdf:resource="http://purl.org/dc/dcmitype/StillImage"/>
   </cc:Work>
  </rdf:RDF>
 </metadata>
 <g id="g6058" transform="translate(-564,-500)">
  <path id="path6716" opacity="1" fill="#d3dae3" style="fill:#d3dae3;text-indent:0;block-progression:tb;text-decoration-line:none;enable-background:new;text-transform:none" transform="translate(564,500)" d="m7.0039 5c-2.25 0-2 2-2 2v12h5.9961v-2h-3.9961v-10h10v4h1.996v3.176c-0.011-0.653-0.449-1.176-0.996-1.176h-5c-0.554 0-1 0.534-1 1.199v3.602c0 0.665 0.446 1.199 1 1.199h5c0.547 0 0.985-0.523 0.996-1.176v1.176h0.004v-12c0-2-2-2-2-2h-10zm1 3v2h2.0001v-2h-2.0001zm3.0001 0v2h2v-2h-2zm3 0v2h2v-2h-2zm-6.0001 3v2h2.0001v-2h-2.0001zm0 3v2h2.0001v-2h-2.0001z"/>
 </g>
</svg>
